!!!!SEGMENT: pl-kk--kk-i-1--014-002_certon-pierre--missa-et-in-terra.krn
!!!cenid: 15xx:724
!!!COM: Certon, Pierre
!!!COM-rismID:
!!!CDT: ~1510-1572/02/23
!!!CNT: French
!!!OPR: [Missa]
!!!OTL: Et in terra
!!!OMV: 002
!!!PDT:
!!!AGN: Sacred; Mass
!!!SMS-siglum: PL-Kk
!!!SMS-shelfmark: Kk.I.1
!!!SMS-shelfwork: 014-002 M
!!!SMS-variant:
!!!SMS-altvar:
!!!NIFC-rismSourceID: 300257968
!!!NIFC-islandoraID: pl-kk:1
!!!URL-pdf-islandora: https://repozytorium.nifc.pl/islandora/object/pl-kk%3A1/datastream/PDF/view
!!!URL-scan: https://polish.musicsources.pl/pl/lokalizacje/galeria/rekopisy/5736 @EN{Scan on Polish Music Herritage in Open Access Website} @PL{Skany w portalu Dziedzictwo Muzyki Polskiej w otwartym dostępie}
!!!ONB-nifc: UWAGA: Cantus (s. 82r-90r, skan 0084-0092), Altus (s. 79r-86v, skan 0271-0279), Tenor (s. 76v-83r, skan 0466-0472), Bassus (s. 76v-85v, skan 0638-0645). Części Mszy: 1. Kyrie, 2. Et in terra, 3. Patrem, 4. Sanctus, 5. Agnus Dei
!!!AIN: 1 alto 1 bass 1 soprn 1 tenor
!!!key: d:dor
**kern	**text	**kern	**text	**kern	**text	**kern	**text
*part4	*part4	*part3	*part3	*part2	*part2	*part1	*part1
*staff4	*staff4	*staff3	*staff3	*staff2	*staff2	*staff1	*staff1
*I"BASSVS	*	*I"TENOR	*	*I"ALTVS	*	*I"CANTVS	*
*I'B	*	*I'T	*	*I'A	*	*I'S	*
*ICvox	*	*ICvox	*	*ICvox	*	*ICvox	*
*Ibass	*	*Itenor	*	*Ialto	*	*Isoprn	*
*clefF4	*	*clefC4	*	*clefC4	*	*clefC4	*
*d:dor	*	*d:dor	*	*d:dor	*	*d:dor	*
*k[]	*	*k[]	*	*k[]	*	*k[]	*
*M2/1	*	*M2/1	*	*M2/1	*	*M2/1	*
*met(c|)	*	*met(c|)	*	*met(c|)	*	*met(c|)	*
=1	=1	=1	=1	=1	=1	=1	=1
!!LO:TX:t=P:problem:sześciolinia	!	!	!	!	!	!
!	!	!	!	!LO:TX:t=P:problem= klucz tenorowy dla A	!	!LO:TX:t=P:problem= klucz tenorowy dla S	!
1r	.	0r	.	1.D	Et	0r	.
1.D	Et	.	.	.	.	.	.
.	.	.	.	2D/	in	.	.
=2	=2	=2	=2	=2	=2	=2	=2
.	.	1r	.	2.F/	ter-	1.D	Et
2D/	in	.	.	.	.	.	.
.	.	.	.	4G/	-ra	.	.
2.F\	ter-	1.D	Eet	1A	pax	.	.
.	.	.	.	.	.	2D/	in
4G\	-ra	.	.	.	.	.	.
=3	=3	=3	=3	=3	=3	=3	=3
1A	pax	.	.	2D/	ho-	2.F/	ter-
.	.	2D/	in	2.F/	-mi-	.	.
.	.	.	.	.	.	4G/	-ra
2r	.	2.F/	ter-	.	.	1A	pax
.	.	.	.	4G/	-ni-	.	.
2D/	ho-	.	.	2A/	-bus	.	.
.	.	4G/	-ra	.	.	.	.
=4	=4	=4	=4	=4	=4	=4	=4
1.F	-mi-	1A	pax	1r	.	2r	.
.	.	.	.	.	.	2D/	ho-
.	.	1r	.	2A/	bo-	2F/	-mi-
2E/	-ni-	.	.	2.c\	-n(ae)	2G/	-ni-
=5	=5	=5	=5	=5	=5	=5	=5
2C/	-bus	2r	.	.	.	1A	-bus
.	.	.	.	4B/	vo-	.	.
*custos:E	*	*	*	*	*	*	*
2D/	.	2A/	bo-	2A/	.	.	.
!LO:LB:g=original	!	!	!	!	!	!	!
1E	.	2c\	-n(ae)	2A/	-lun-	1r	.
.	.	2B\	vo-	2G/	-ta-	.	.
=6	=6	=6	=6	=6	=6	=6	=6
0AA	.	2.A/	-lun-	2F/	-tis	2r	.
.	.	.	.	2E/	.	2A\	bo-
.	.	4G/	.	.	.	.	.
.	.	4F/	.	2r	.	1.c	-n(ae)
.	.	4E/	.	.	.	.	.
.	.	1e	.	2.A/	vo-	.	.
=7	=7	=7	=7	=7	=7	=7	=7
2r	.	.	.	.	.	.	.
.	.	.	.	4G/	.	.	.
!	!	!LO:TX:t=P:problem=dwie minimy połączone w jedną semibrevis	!	!	!	!	!
2D/	bo-	2d\	.	4F/	.	2B/	vo-
.	.	.	.	4E/	.	.	.
1.F	-n(ae)	2d\	.	4F/	-lun-	2.A/	-lun-
.	.	.	.	4D/	.	.	.
*	*	*custos:d	*	*custos:A	*	*	*
.	.	2c\	-ta-	1A	-ta-	.	.
*	*	*	*	*	*	*custos:F	*
.	.	.	.	.	.	4G/	.
!	!	!	!	!	!	!LO:LB:g=original	!
!	!	!LO:LB:g=original	!	!	!LO:LB:g=original	!	!
=8	=8	=8	=8	=8	=8	=8	=8
.	.	2d\	-tis	.	.	4F/	.
.	.	.	.	.	.	4E/	.
2E\	vo-	1G	.	2.c\	-tis	1e	.
2C/	-lun-	.	.	.	.	.	.
.	.	.	.	4B\	.	.	.
2D/	-ta-	2F/	.	4A/	.	1d	.
.	.	.	.	4G/	.	.	.
=9	=9	=9	=9	=9	=9	=9	=9
1AA	-tis	1E	.	0A	.	.	.
.	.	.	.	.	.	2c\	-ta-
1D	.	1D	.	.	.	1d	-tis
=10	=10	=10	=10	=10	=10	=10	=10
2r	.	2r	.	2r	.	2r	.
1D	lau-	1A	Lau-	1d	lau-	1f	lau-
2D/	-da-	2A/	-da-	2d\	-da-	2f\	-da-
=11	=11	=11	=11	=11	=11	=11	=11
1F	-mus-	1A	-m(us)	1c	-mus	1f	-mus
2C/	-te	2G/	te	2c\	te	2e\	te
2C/	b(e)-	2G/	b(e)-	2c\	b(e)-	2e\	b(e)-
=12	=12	=12	=12	=12	=12	=12	=12
2C/	-n(e)-	2G/	-n(e)-	2c\	-n(e)-	2e\	-n(e)-
2C/	-di-	2G/	-di-	2c\	-di-	2e\	-di-
1D	-ci-	1F	-ci-	2B\	-ci-	1d	-ci-
.	.	.	.	1A	-mus	.	.
=13	=13	=13	=13	=13	=13	=13	=13
1BB	-mus	1D	-mus	.	.	1d	-mus
.	.	.	.	2G/	.	.	.
0AA	te	2E/	te	2.A/	te	0c	te
.	.	1A	a-	.	.	.	.
.	.	.	.	8G/L	.	.	.
.	.	.	.	8F/J	.	.	.
=14	=14	=14	=14	=14	=14	=14	=14
.	.	.	.	4E/	.	.	.
.	.	.	.	4D/	.	.	.
.	.	2c\	-do-	2E/	.	.	.
2r	.	2B\	-ra-	0D	.	1r	.
1D	A-	1A	-mus	.	.	.	.
=15	=15	=15	=15	=15	=15	=15	=15
.	.	.	.	.	.	0r	.
*custos:E	*	*	*	*	*	*	*
2F\	-do-	4G/	.	.	.	.	.
.	.	4F/	.	.	.	.	.
!LO:LB:g=original	!	!	!	!	!	!	!
2E\	-ra-	4G/	.	2r	.	.	.
.	.	4F/	.	.	.	.	.
1D	.	4E/	.	1A	A-	.	.
*	*	*custos:E	*	*	*	*	*
.	.	4D/	.	.	.	.	.
!	!	!LO:LB:g=original	!	!	!	!	!
=16	=16	=16	=16	=16	=16	=16	=16
.	.	1E	.	.	.	0r	.
*	*	*	*	*custos:B	*	*	*
2C/	-mus	.	.	2c\	-do-	.	.
!	!	!	!	!LO:LB:g=original	!	!	!
4D/	te	1D	te	2B\	-ra-	.	.
4C/	.	.	.	.	.	.	.
4BB/	.	.	.	1A	-mus	.	.
4AA/	.	.	.	.	.	.	.
=17	=17	=17	=17	=17	=17	=17	=17
1BB	.	1r	.	.	.	1d	glo-
.	.	.	.	2G/	.	.	.
1AA	.	2r	.	2A/	te	2f\	-ri-
*	*	*	*	*col	*	*	*
.	.	2A\	Glo-	2.A\	.	1e	-fi-
=18	=18	=18	=18	=18	=18	=18	=18
2r	.	2c\	-ri-	.	.	.	.
.	.	.	.	4G/	.	.	.
*	*	*	*	*Xcol	*	*	*
1D	glo-	2B\	-fi-	4F/	.	1d	-ca-
.	.	.	.	4E/	.	.	.
.	.	2.A/	-ca-	4F/	.	.	.
.	.	.	.	4D/	­ .	.	.
1F	-ri-	.	.	1A	glo-	2c\	-mus
.	.	4G/	.	.	.	.	.
=19	=19	=19	=19	=19	=19	=19	=19
*	*	*	*	*	*	*custos:e	*
.	.	4F/	-mus	.	.	2d\	.
.	.	4E/	.	.	.	.	.
!	!	!	!	!	!	!LO:LB:g=original	!
2E\	-fi-	2.G/	.	1c	-ri-	1e	.
2C/	-ca-	.	.	.	.	.	.
.	.	4F/	.	.	.	.	.
2D/	-mus	4E/	.	2B\	-fi-	1d	.
.	.	4D/	.	.	.	.	.
=20	=20	=20	=20	=20	=20	=20	=20
1AA	.	1E	.	2A\	-ca-	.	.
.	.	.	.	2A\	-mus	2c\	.
1D	te	1D	.	0F	te	0d	te
=21	=21	=21	=21	=21	=21	=21	=21
2r	.	2r	.	.	.	.	.
2D/	Gra-	2d\	Gra-	.	.	.	.
2D/	-ti-	2d\	-ci-	1r	.	1r	.
2D/	-as	2d\	-as	.	.	.	.
=22	=22	=22	=22	=22	=22	=22	=22
2E\	a-	1c	a-	0r	.	0r	.
2F\	-gi-	.	.	.	.	.	.
2G\	-mus	1B	-gi-	.	.	.	.
2.D/	ti-	.	.	.	.	.	.
=23	=23	=23	=23	=23	=23	=23	=23
.	.	2.A\	-mus	0r	.	0r	.
*custos:F	*	*	*	*	*	*	*
4E/	.	.	.	.	.	.	.
!LO:LB:g=original	!	!	!	!	!	!	!
4F\	.	.	.	.	.	.	.
*	*	*custos:c	*	*	*	*	*
4G\	.	4B\	.	.	.	.	.
!	!	!LO:LB:g=original	!	!	!	!	!
2A\	.	2c\	.	.	.	.	.
1B	.	2.d\	ti-	.	.	.	.
=24	=24	=24	=24	=24	=24	=24	=24
.	.	.	.	0r	.	0r	.
.	.	4c\	.	.	.	.	.
1A	.	4B\	.	.	.	.	.
.	.	4A\	.	.	.	.	.
.	.	1B	.	.	.	.	.
2G\	.	.	.	.	.	.	.
=25	=25	=25	=25	=25	=25	=25	=25
1A	-bi	1A	-bi	0r	.	0r	.
1D	prop-	2r	.	.	.	.	.
.	.	1A	p(ro)p-	.	.	.	.
=26	=26	=26	=26	=26	=26	=26	=26
2D/	.	.	.	0r	.	0r	.
1D	-ter	2A\	-ter	.	.	.	.
.	.	1A	ma-	.	.	.	.
2D/	ma-	.	.	.	.	.	.
=27	=27	=27	=27	=27	=27	=27	=27
2C/	.	2A\	-gna(m)	0r	.	0r	.
2BB/	-gnam	2G/	.	.	.	.	.
2.AA/	glo-	2F/	glo-	.	.	.	.
.	.	1E	-ri-	.	.	.	.
4BB/	-ri-	.	.	.	.	.	.
=28	=28	=28	=28	=28	=28	=28	=28
2C/	-a(m)	.	.	1r	.	1r	.
2.D/	tu-	2.F/	-am	.	.	.	.
.	.	.	.	2r	.	2r	.
4C/	.	4E/	tu-	.	.	.	.
4BB/	.	1A	-am	2D/	Do-	2d\	Do-
4AA/	.	.	.	.	.	.	.
=29	=29	=29	=29	=29	=29	=29	=29
1BB	.	.	.	2D/	-mi-	2d\	-mi-
.	.	2G/	.	2D/	-ne	2d\	-ne
1AA	-am	1A	.	2E/	De-	1c	de-
.	.	.	.	2F/	.	.	.
=30	=30	=30	=30	=30	=30	=30	=30
0r	.	0r	.	2G/	-us	1B	-us
*	*	*	*	*col	*	*	*
.	.	.	.	2.D/	rex	.	.
*	*	*	*	*	*	*col	*
.	.	.	.	.	.	2.A\	rex
*	*	*	*	*custos:F	*	*	*
.	.	.	.	4E/	coe-	.	.
!	!	!	!	!LO:LB:g=original	!	!	!
*	*	*	*	*Xcol	*	*	*
.	.	.	.	4F/	-le-	.	.
.	.	.	.	4G/	.	4B\	.
*	*	*	*	*	*	*Xcol	*
=31	=31	=31	=31	=31	=31	=31	=31
0r	.	0r	.	2A/	.	2c\	.
*	*	*	*	*	*	*col	*
.	.	.	.	1B	.	2.d\	coe-
.	.	.	.	.	.	4c\	.
*	*	*	*	*	*	*Xcol	*
.	.	.	.	1A	.	4B\	-les-
.	.	.	.	.	.	4A\	.
=32	=32	=32	=32	=32	=32	=32	=32
1r	.	0r	.	.	.	1B	-tis
.	.	.	.	2G/	.	.	.
2r	.	.	.	2A/	-ſtis	1A	.
2A\	De-	.	.	2e\	De-	.	.
=33	=33	=33	=33	=33	=33	=33	=33
2A\	-us	0r	.	2e\	-us	0r	.
*custos:A	*	*	*	*	*	*	*
2A\	pa-	.	.	2e\	p(a-	.	.
!LO:LB:g=original	!	!	!	!	!	!	!
2.A\	-ter	.	.	2.f\	-te)r	.	.
4G\	om-	.	.	4e\	om-	.	.
=34	=34	=34	=34	=34	=34	=34	=34
2F\	-ni-	1r	.	2d\	-ni-	1r	.
2E\	-po-	.	.	2c\	-po-	.	.
0D	-tens	2r	.	2d\	-tens	2r	.
*	*	*custos:A	*	*	*	*	*
.	.	2A/	De-	2d\	.	2f\	de-
!	!	!LO:LB:g=original	!	!	!	!	!
=35	=35	=35	=35	=35	=35	=35	=35
.	.	2A/	-us	2d\	.	2f\	-us
*	*	*	*	*	*	*custos:f	*
.	.	2A/	p(a-	2d\	.	2f\	pa-
!	!	!	!	!	!	!LO:LB:g=original	!
*	*	*	*	*col	*	*col	*
1r	.	2.A/	-te)r	2.c\	.	2.f\	-ter
.	.	4G/	o(m-	4B\	.	4e\	.
*	*	*	*	*Xcol	*	*Xcol	*
=36	=36	=36	=36	=36	=36	=36	=36
1r	.	2F/	-n)i-	2A/	.	2d\	om-
.	.	2E/	-po-	2G/	.	2c\	-ni-
2r	.	1D	-tens	1A	.	2d\	-po-
2D/	.	.	.	.	.	4D/	.
.	.	.	.	.	.	4E/	.
=37	=37	=37	=37	=37	=37	=37	=37
2D/	.	2r	.	2r	.	4F/	.
.	.	.	.	.	.	4G/	.
*	*	*	*ij	*	*	*	*
2D/	.	1F	om-	1A	om-	4A/	.
.	.	.	.	.	.	4B/	.
2.C/	.	.	.	.	.	4c/	.
.	.	.	.	.	.	4d/	.
.	.	2E/	.	2G/	-ni-	1e	.
4BB/	.	.	.	.	.	.	.
=38	=38	=38	=38	=38	=38	=38	=38
2AA/	.	2F/	-ni-	2A/	-po-	.	.
*	*	*	*	*custos:A	*	*	*
2GG/	.	2G/	.	2B/	-tens	1d	.
!	!	!	!	!LO:LB:g=original	!	!	!
1AA	.	1E	-po-	1A	.	.	.
.	.	.	.	.	.	2c\	.
=39	=39	=39	=39	=39	=39	=39	=39
0D	.	0D	-tens	1A	.	0d	-tens
.	.	.	.	2r	.	.	.
.	.	.	.	2d\	Do-	.	.
*	*	*	*Xij	*	*	*	*
=40	=40	=40	=40	=40	=40	=40	=40
2r	.	0r	.	2d\	-mi-	1r	.
2A\	Do-	.	.	2c\	-ne	.	.
2A\	-mi-	.	.	1B	fi-	2r	.
2G\	-ne	.	.	.	.	1d	Do-
=41	=41	=41	=41	=41	=41	=41	=41
1F	fi-	2r	.	1A	-li	.	.
.	.	2A/	Do-	.	.	2d\	-mi-
1E	-li	2A/	-mi-	2r	.	2c\	-ne
.	.	2G/	-ne	2e\	v-	2B/	fi-
=42	=42	=42	=42	=42	=42	=42	=42
0r	.	1F	Fi-	4d\	-ni-	2A/	-li
.	.	.	.	4c\	.	.	.
.	.	.	.	4B/	.	1A	v-
.	.	.	.	4A/	.	.	.
.	.	1E	-li	2B\	-ge-	.	.
.	.	.	.	2B\	-ni-	2G/	-ni-
=43	=43	=43	=43	=43	=43	=43	=43
1.D	V-	1.A	v-	1A	-te	2F/	-ge-
*	*	*	*	*	*	*custos:E	*
.	.	.	.	.	.	2F/	-ni-
!	!	!	!	!	!	!LO:LB:g=original	!
.	.	.	.	1r	.	2E/	-te
*	*	*custos:D	*	*	*	*	*
2C/	-ni-	2A/	-ni-	.	.	1A	.
!	!	!LO:LB:g=original	!	!	!	!	!
=44	=44	=44	=44	=44	=44	=44	=44
2BB/	-ge-	2D/	-ge-	1r	.	.	.
*custos:AA	*	*	*	*	*	*	*
2BB/	-ni-	2D/	-ni-	.	.	2G/	.
!LO:LB:g=original	!	!	!	!	!	!	!
2AA/	-te	2E/	-te	1.A	v-	1A	.
2D/	.	2.F/	.	.	.	.	.
=45	=45	=45	=45	=45	=45	=45	=45
4D/	.	.	.	.	.	0d	JE-
4C/	.	4E/	.	.	.	.	.
4BB/	.	1A	.	2A/	-ni-	.	.
4AA/	.	.	.	.	.	.	.
1BB	.	.	.	2D/	-ge-	.	.
.	.	2G/	.	2D/	-ni-	.	.
=46	=46	=46	=46	=46	=46	=46	=46
1AA	.	1A	.	0E	-te	2c\	-SV
.	.	.	.	.	.	2A\	.
2r	.	2r	.	.	.	2.c\	CHRi-
2AA/	Je-	1A	Je-	.	.	.	.
.	.	.	.	.	.	4d\	-STE
=47	=47	=47	=47	=47	=47	=47	=47
*lig	*	*	*	*	*	*	*
1C	-ſu	.	.	2r	.	0.e	.
.	.	2.c\	-ſu	2A/	Je-	.	.
1AA	.	.	.	1c	-ſu	.	.
.	.	4B\	.	.	.	.	.
.	.	1A	.	.	.	.	.
*Xlig	*	*	*	*	*	*	*
=48	=48	=48	=48	=48	=48	=48	=48
*	*	*	*	*custos:A	*	*	*
1E	Chri-	.	.	1B	Chri-	.	.
.	.	2G/	chri-	.	.	.	.
!	!	!	!	!LO:LB:g=original	!	!	!
2AA/	.	2A/	-ste	2A/	-ſte	1r	.
*	*	*	*	*	*ij	*	*
1D	-ſte	1F	.	2A/	Je-	.	.
=49	=49	=49	=49	=49	=49	=49	=49
.	.	.	.	1c	.	1r	.
2C/	.	2E/	.	.	.	.	.
1D	.	2F/	.	1B	-ſu	2r	.
.	.	2.D/	.	.	.	2d\	Je-
=50	=50	=50	=50	=50	=50	=50	=50
2r	.	.	.	2A/	.	2.f\	-ſu
.	.	4E/	.	.	.	.	.
2D/	Je-	4F/	.	2.F/	Chri-	.	.
.	.	4G/	.	.	.	4e\	.
*	*	*custos:A	*	*	*	*	*
1.F	-ſu	1A	.	.	.	2d\	.
.	.	.	.	4G/	.	.	.
.	.	.	.	1A	.	2c\	.
!	!	!LO:LB:g=original	!	!	!	!	!
=51	=51	=51	=51	=51	=51	=51	=51
.	.	1r	.	.	.	0f	Chri-
2E\	Chri-	.	.	1G	.	.	.
1D	.	2r	.	.	.	.	.
.	.	2A\	Je-	2F/	.	.	.
=52	=52	=52	=52	=52	=52	=52	=52
2C/	-ste	1.c	-ſu	2G/	.	0e	.
4AA/	.	.	.	1A	.	.	.
4BB/	.	.	.	.	.	.	.
4C/	.	.	.	.	.	.	.
4D/	.	.	.	.	.	.	.
*custos:F	*	*	*	*	*	*	*
2E\	.	2B\	.	2G/	.	.	.
!LO:LB:g=original	!	!	!	!	!	!	!
=53	=53	=53	=53	=53	=53	=53	=53
*col	*	*	*	*	*	*	*
2.F\	.	2.A/	chri-	0A	.	1c	-ste
4E\	.	4G/	-ste	.	.	.	.
*Xcol	*	*	*	*	*	*	*
2D/	.	2F/	.	.	.	2d\	.
2C/	.	2E/	.	.	.	1e	.
=54	=54	=54	=54	=54	=54	=54	=54
*	*	*	*	*lig	*	*	*
2BB-X/	.	2F/	.	1B	.	.	.
2GG/	.	2G/	.	.	.	1d	.
1AA	.	1E	.	1A	.	.	.
.	.	.	.	.	.	2c\	.
*	*	*	*	*Xlig	*	*	*
=55	=55	=55	=55	=55	=55	=55	=55
*lig	*	*	*	*	*	*	*
!	!	!LO:TX:a:t=D(omi)ne deus\ntacet.	!	!	!	!	!
*	*	*	*	*lig	*	*	*
*	*	*	*	*	*	*custos:D	*
1BB	.	00D;	.	1F	.	00d;<	.
1GG	.	.	.	1.B	.	.	.
*Xlig	*	*	*	*Xlig	*	*	*
!	!	!LO:LB:g=original	!	!	!	!LO:LB:g=original	!
=56	=56	=56	=56	=56	=56	=56	=56
0D;<l	.	.	.	.	.	.	.
.	.	.	.	4A/	.	.	.
.	.	.	.	4G/	.	.	.
.	.	.	.	1A;l/	-ſte	.	.
*	*	*	*	*	*Xij	*	*
=57	=57	=57	=57	=57	=57	=57	=57
*clefF4	*	*	*	*	*	*	*
!LO:TX:a:B:t=Duo\nD	!	!	!	!LO:TX:a:t=d(omi)ne deus\ntacet Vide \ninfra	!	!LO:TX:a:B:t=Duo.	!
!	!	!	!	!LO:TX:t=P:problem=u dołu stron dopisany trzeci głos	!	!	!
1.D	Do	0ryy	.	0r	.	0r	.
2D/	mi-	.	.	.	.	.	.
=58	=58	=58	=58	=58	=58	=58	=58
*	*	*	*	*M2/1	*	*	*
*	*	*	*	*met(c)	*	*	*
!	!	!	!	!LO:TX:t=P:problem=głos dopisany u dołu strony na dodatkowej pięciolinii (nie sześciolinii, jak w całym głosie)	!	!	!
!	!	!	!	!LO:TX:t=P:problem=głos dopisany u dołu strony na dodatkowej pięciolinii (nie sześciolinii, jak w całym głosie)	!	!	!
1F	-ne	0ryy	.	1.D	Do-	0r	.
1G	De-	.	.	.	.	.	.
.	.	.	.	2D/	-mi-	.	.
=59	=59	=59	=59	=59	=59	=59	=59
*	*	*	*	*	*	*M2/1	*
*	*	*	*	*	*	*met(c|)	*
*col	*	*	*	*	*	*	*
2.A\	-us	0ryy	.	1.F	-ne	1.D	Do-
4G\	.	.	.	.	.	.	.
*Xcol	*	*	*	*	*	*	*
4F\	.	.	.	.	.	.	.
4E\	.	.	.	.	.	.	.
2.D/	.	.	.	2G/	.	2D/	-mi-
=60	=60	=60	=60	=60	=60	=60	=60
.	.	0ryy	.	1A	.	1F	-ne
4C/	.	.	.	.	.	.	.
4BB/	.	.	.	.	.	.	.
*custos:BB	*	*	*	*	*	*	*
4AA/	.	.	.	.	.	.	.
!LO:LB:g=original	!	!	!	!	!	!	!
1BB	.	.	.	4G/	De-	1G	de-
.	.	.	.	4F/	.	.	.
.	.	.	.	4E/	.	.	.
.	.	.	.	4D/	.	.	.
=61	=61	=61	=61	=61	=61	=61	=61
1AA	.	0ryy	.	1E	.	0A	-us
2r	.	.	.	1F	.	.	.
2D/	A-	.	.	.	.	.	.
=62	=62	=62	=62	=62	=62	=62	=62
1.F	-gnus	0ryy	.	1D	-(us)	2r	.
.	.	.	.	.	.	2A\	a-
.	.	.	.	2r	.	1.c	-gnus
2E\	.	.	.	1A	A-	.	.
=63	=63	=63	=63	=63	=63	=63	=63
2C/	De-	0ryy	.	.	.	.	.
2D/	-i	.	.	1d	-gn(us)	2B/	.
2E/	.	.	.	.	.	2G/	de-
*col	*	*	*	*	*	*	*
2.F\	.	.	.	1c	De-	2.A/	-i
=64	=64	=64	=64	=64	=64	=64	=64
.	.	0ryy	.	.	.	.	.
4E/	.	.	.	.	.	4G/	.
*Xcol	*	*	*	*	*	*	*
1D	.	.	.	2A\	.	2F/	.
.	.	.	.	2B\	.	1E	.
2C/	.	.	.	2.A/	.	.	.
=65	=65	=65	=65	=65	=65	=65	=65
1D	.	0ryy	.	.	.	4D/	.
.	.	.	.	4G/	.	4E/	.
.	.	.	.	4A\	.	4F/	.
.	.	.	.	4B\	.	4G/	.
2F\	.	.	.	4c\	.	4A\	.
.	.	.	.	4d\	.	4B\	.
*	*	*	*	*	*	*custos:B	*
2E\	.	.	.	1e	.	2c\	.
!	!	!	!	!	!	!LO:LB:g=original	!
=66	=66	=66	=66	=66	=66	=66	=66
2.G\	.	0ryy	.	.	.	2B\	.
.	.	.	.	4B\	.	2d\	.
4F\	.	.	.	2A/	.	.	.
2E/	.	.	.	.	.	2c\	.
.	.	.	.	2G/	.	.	.
2D/	.	.	.	.	.	1B	.
.	.	.	.	4F/	.	.	.
=67	=67	=67	=67	=67	=67	=67	=67
2C/	.	0ryy	.	2G/	-i	.	.
4BB/	.	.	.	1D	a-	1A	.
4AA/	.	.	.	.	.	.	.
1BB	.	.	.	.	.	.	.
.	.	.	.	2E/	-gn(us)	2G/	.
=68	=68	=68	=68	=68	=68	=68	=68
*custos:D	*	*	*	*	*	*	*
1AA	.	0ryy	.	2.F/	De-	0.A	.
.	.	.	.	8E/L	.	.	.
.	.	.	.	8D/J	.	.	.
!LO:LB:g=original	!	!	!	!	!	!	!
2r	.	.	.	2E/	.	.	.
1D	fi-	.	.	2A/	.	.	.
=69	=69	=69	=69	=69	=69	=69	=69
.	.	0ryy	.	2F/	.	.	.
2D/	-li-	.	.	2D/	.	.	.
2C/	-us	.	.	2E/	-i	2r	.
*col	*	*	*	*	*	*	*
2.D\	pa-	.	.	1F	Fi-	1A	fi-
=70	=70	=70	=70	=70	=70	=70	=70
.	.	0ryy	.	.	.	.	.
4E\	.	.	.	.	.	.	.
*Xcol	*	*	*	*	*	*	*
4F\	.	.	.	2F/	-li-	2A/	-li-
4D\	.	.	.	.	.	.	.
2E\	.	.	.	2E/	-(us)	2G/	-us
2AA/	-tris	.	.	2.F/	Pa-	2.A/	pa-
=71	=71	=71	=71	=71	=71	=71	=71
2r	.	0ryy	.	.	.	.	.
.	.	.	.	4G\	.	4B\	.
2AA/	fi-	.	.	2A\	.	4c\	.
.	.	.	.	.	.	4A\	.
2GG/	-li-	.	.	2E/	.	2B\	.
*col	*	*	*	*	*	*	*
2.AA/	-us	.	.	2A\	-tris	2E/	-tris
=72	=72	=72	=72	=72	=72	=72	=72
.	.	0ryy	.	2r	.	2r	.
4BB/	.	.	.	.	.	.	.
*Xcol	*	*	*	*	*	*	*
4C/	.	.	.	2F/	Fi-	2A/	fi-
4AA/	.	.	.	.	.	.	.
2BB/	.	.	.	2E/	-li-	2G/	-li-
2AA/	.	.	.	2F/	-(us)	2.A/	-us
=73	=73	=73	=73	=73	=73	=73	=73
2D/	pa-	0ryy	.	2D/	Pa-	.	.
.	.	.	.	.	.	4B\	.
2C/	.	.	.	2E/	.	4c\	.
*	*	*	*	*	*	*custos:B	*
.	.	.	.	.	.	4A\	.
!	!	!	!	!	!	!LO:LB:g=original	!
4D/	.	.	.	1A	-tris	2B\	.
4E/	.	.	.	.	.	.	.
4F\	.	.	.	.	.	4A\	pa-
4G\	.	.	.	.	.	4B\	.
=74	=74	=74	=74	=74	=74	=74	=74
*	*	*	*	*	*ij	*	*
1A	.	0ryy	.	1F	Fi-	4c\	.
.	.	.	.	.	.	4d\	.
.	.	.	.	.	.	4e\	.
.	.	.	.	.	.	4c\	.
2F\	.	.	.	2D/	-li-	2d\	.
1G	.	.	.	1C	-(us)	1e	.
=75	=75	=75	=75	=75	=75	=75	=75
.	.	0ryy	.	.	.	.	.
2F\	-tris	.	.	2F/	.	1d	.
1E	.	.	.	1G	Pa-	.	.
.	.	.	.	.	.	2c\	.
=76	=76	=76	=76	=76	=76	=76	=76
*custos:D	*	*	*	*	*	*	*
0D;	.	0ryy	.	0A;<	-tris	0d;<l	-tris
*	*	*	*	*	*Xij	*	*
!LO:LB:g=original	!	!	!	!	!	!	!
!	!	!	!	!LO:LB:g=original	!	!	!
=77	=77	=77	=77	=77	=77	=77	=77
*	*	*M2/1	*	*M2/1	*	*	*
*	*	*met(c|)	*	*met(c|)	*	*	*
1D	Qui	0r	.	1D	Qui	0r	.
2D/	tol-	.	.	2F/	tol-	.	.
2C/	.	.	.	2E/	-lis	.	.
=78	=78	=78	=78	=78	=78	=78	=78
2D/	-lis	0r	.	2.F/	pec-	0r	.
2.D/	pec-	.	.	.	.	.	.
.	.	.	.	4E/	.	.	.
.	.	.	.	4F/	-ca-	.	.
4C/	.	.	.	4G/	.	.	.
4BB/	-ca-	.	.	1A	-ta	.	.
4AA/	-ta	.	.	.	.	.	.
=79	=79	=79	=79	=79	=79	=79	=79
2BB/	.	1D	QVi	.	.	1d	Qui
2BB/	mun-	.	.	2G/	mun-	.	.
1AA	-di	2F/	tol-	1A	-di	2d\	tol-
.	.	2E/	-lis	.	.	2c\	-lis
=80	=80	=80	=80	=80	=80	=80	=80
0r	.	2.F/	pec-	0r	.	2d\	p(ec)-
.	.	.	.	.	.	2d\	-c(a)-
.	.	4E/	.	.	.	.	.
.	.	4F/	-ca-	.	.	4d\	-ta
.	.	4G/	-ta	.	.	4c\	.
.	.	1A	.	.	.	4B\	.
.	.	.	.	.	.	4A\	.
=81	=81	=81	=81	=81	=81	=81	=81
!LO:TX:a:t=4	!	!	!	!	!	!	!
0r	.	.	.	2r	.	2B\	.
*	*	*	*	*	*	*custos:A	*
.	.	2G/	mun-	2d\	.	2B\	mun-
*	*	*lig	*	*	*	*	*
!	!	!	!	!	!	!LO:LB:g=original	!
.	.	1A	.	2d\	.	2A/	-di
.	.	.	.	2c\	.	2A/	mi-
=82	=82	=82	=82	=82	=82	=82	=82
1r	.	1B	.	2d\	.	2A/	-ſe-
.	.	.	.	2.d\	.	2G/	-re-
*	*	*Xlig	*	*	*	*	*
2r	.	1A	-di	.	.	2A/	-re
.	.	.	.	4c\	.	.	.
2A\	mi-	.	.	4B\	.	2A/	no-
.	.	.	.	4A\	.	.	.
=83	=83	=83	=83	=83	=83	=83	=83
2A\	-ſe-	2r	.	2B\	.	1E	-bis
2G\	-re-	2e\	mi-	2B\	.	.	.
2A\	-re	2e\	-ſe-	2A/	.	1c	.
1A	no-	2e\	-re-	1c	mi-	.	.
=84	=84	=84	=84	=84	=84	=84	=84
.	.	2c\	-re	.	.	2A/	.
2G\	-bis	2.d\	no-	2B\	-ſe-	1B	.
1F	.	.	.	2c\	-re-	.	.
.	.	4c\	.	.	.	.	.
.	.	4B\	.	2d\	-re	1A	.
*	*	*custos:B	*	*	*	*	*
.	.	4A\	.	.	.	.	.
!	!	!LO:LB:g=original	!	!	!	!	!
=85	=85	=85	=85	=85	=85	=85	=85
*	*	*	*	*custos:c	*	*	*
1E	.	1B	.	1e	no-	.	.
.	.	.	.	.	.	2G/	.
!	!	!	!	!LO:LB:g=original	!	!	!
*	*	*	*	*	*	*lig	*
2AA/	.	1A	-bis	1c	-bis	1A	.
2C/	.	.	.	.	.	.	.
=86	=86	=86	=86	=86	=86	=86	=86
2BB/	.	2r	.	2r	.	1B	.
2GG/	.	2D/	Qui	2d\	Qui	.	.
*	*	*	*	*	*	*Xlig	*
*custos:D	*	*	*	*	*	*	*
1AA	.	2F/	tol-	2d\	tol-	0A	.
.	.	2E/	-lis	2c\	-lis	.	.
!LO:LB:g=original	!	!	!	!	!	!	!
=87	=87	=87	=87	=87	=87	=87	=87
1D	.	2.F/	pec-	2d\	pec-	.	.
.	.	.	.	2.d\	-ca-	.	.
.	.	4E/	.	.	.	.	.
1r	.	4F/	-ca-	.	.	1r	.
.	.	4G/	-ta	4c\	.	.	.
.	.	1A	.	4B\	.	.	.
.	.	.	.	4A/	-ta	.	.
=88	=88	=88	=88	=88	=88	=88	=88
1r	.	.	.	2B\	.	1r	.
.	.	2G/	mun-	2B\	mun-	.	.
2r	.	1A	-di	1A	-di	2r	.
2D/	Qui	.	.	.	.	2d\	Qui
=89	=89	=89	=89	=89	=89	=89	=89
2F\	.	0r	.	0r	.	2d\	tol-
2E\	tol-	.	.	.	.	2c\	-lis
2.F\	-lis	.	.	.	.	2d\	p(ec)-
.	.	.	.	.	.	1d	-c(a)-
4E\	pec-	.	.	.	.	.	.
=90	=90	=90	=90	=90	=90	=90	=90
4F\	-ca-	0r	.	0r	.	.	.
4G\	-ta	.	.	.	.	.	.
*	*	*	*	*	*	*custos:B	*
1A	mun-	.	.	.	.	2c\	-ta
!	!	!	!	!	!	!LO:LB:g=original	!
.	.	.	.	.	.	1B	mun-
2G\	.	.	.	.	.	.	.
=91	=91	=91	=91	=91	=91	=91	=91
1A	-di	1r	.	1r	.	1A	-di
1.D	ſu-	1.F	ſu-	1.A	ſu-	1.f	ſu-
=92	=92	=92	=92	=92	=92	=92	=92
.	.	.	.	.	.	.	.
2C/	-ſci-	2G/	-sci-	2c\	-ſci-	2e\	-sci-
00C	-pe	0G	-pe	1c	-pe	00e	-pe
=93	=93	=93	=93	=93	=93	=93	=93
.	.	.	.	2r	.	.	.
.	.	.	.	2.c\	de-	.	.
.	.	2r	.	.	.	.	.
.	.	.	.	4B/	-p(re)-	.	.
.	.	2.c\	de-	2A/	-ca-	.	.
=94	=94	=94	=94	=94	=94	=94	=94
.	.	.	.	2G/	-ti-	.	.
.	.	4B\	-p(re)-	.	.	.	.
.	.	2A\	-ca-	2A/	-o-	.	.
2r	.	2G/	-ti-	2E/	-nem	1r	.
*	*	*custos:E	*	*	*	*	*
2F/	de-	2A/	-o-	1c	no-	.	.
!	!	!LO:LB:g=original	!	!	!	!	!
=95	=95	=95	=95	=95	=95	=95	=95
2E/	-pr(ae)-	2E/	-nem	.	.	2r	.
*	*	*	*	*custos:G	*	*	*
2D/	-ca-	2A/	.	2F/	.	2f\	de-
2C/	-ti-	2c\	nos-	2G/	.	2e\	-pre-
2D/	-o-	2B\	-tram	2F/	-ſtram	2d\	-ca-
=96	=96	=96	=96	=96	=96	=96	=96
2AA/	-nem	1A	.	2r	.	2c\	-ti-
1D	no	.	.	1f	de-	2d\	-o-
.	.	2r	.	.	.	1A	-nem
*custos:D	*	*	*	*	*	*	*
2C/	.	2c\	de-	2e\	-pr(ae)-	.	.
!LO:LB:g=original	!	!	!	!	!	!	!
=97	=97	=97	=97	=97	=97	=97	=97
1D	.	2B\	-p(re)-	1d	-ca-	2r	.
.	.	1A	-ca-	.	.	2f\	de-
1r	.	.	.	2c\	-ti-	2e\	-pr(ae)-
.	.	2G/	-ti-	2d\	-o-	2d\	-ca-
=98	=98	=98	=98	=98	=98	=98	=98
2r	.	2A/	-o-	1A	-(ne)m	2c\	-ti-
2.F\	de-	4D/	-nem	.	.	2d\	-o-
.	.	4E/	.	.	.	.	.
.	.	4F/	.	2r	.	1A	-(ne)m
4E/	-pre-	4G/	.	.	.	.	.
*	*	*	*	*	*ij	*	*
2D/	-ca-	1A	.	2f\	de-	.	.
=99	=99	=99	=99	=99	=99	=99	=99
2C/	-ti-	.	.	2e\	-pr(ae)-	2.A/	no-
2D/	-o-	2F/	noſ-	2d\	-ca-	.	.
.	.	.	.	.	.	4B/	.
2.AA/	-nem	2E/	-tram	2c\	-ti-	4c/	.
.	.	.	.	.	.	4d/	.
*	*	*	*	*	*	*custos:g	*
.	.	2.A/	.	1c	-o-	1e	.
4BB/	.	.	.	.	.	.	.
!	!	!	!	!	!	!LO:LB:g=original	!
=100	=100	=100	=100	=100	=100	=100	=100
2C/	.	.	.	.	.	.	.
.	.	4G/	.	.	.	.	.
2D/	.	2F/	.	2B/	-(ne)m	1d	.
*	*	*	*	*	*Xij	*	*
1AA	noſ-	1E	.	1A	noſ-	.	.
.	.	.	.	.	.	2c\	.
=101	=101	=101	=101	=101	=101	=101	=101
1D	-tram	0D	.	0A	-tram	00d	-stram
2r	.	.	.	.	.	.	.
2D/	Qui	.	.	.	.	.	.
=102	=102	=102	=102	=102	=102	=102	=102
1D	ſe-	0r	.	2r	.	.	.
.	.	.	.	2A/	Qui	.	.
1D	-des	.	.	1A	ſe-	.	.
=103	=103	=103	=103	=103	=103	=103	=103
2r	.	0r	.	1A	-des	0r	.
2D/	ad	.	.	.	.	.	.
2D/	dex-	.	.	2r	.	.	.
2C/	-te-	.	.	2A/	ad	.	.
=104	=104	=104	=104	=104	=104	=104	=104
2D/	-ra(m)	0r	.	2A/	dex-	0r	.
2E/	p(at)-	.	.	2G/	-te-	.	.
1D	-ris	.	.	2A/	-ra(m)	.	.
*	*	*	*	*custos:A	*	*	*
.	.	.	.	2B/	pa-	.	.
!	!	!	!	!LO:LB:g=original	!	!	!
=105	=105	=105	=105	=105	=105	=105	=105
2r	.	0r	.	1A	-tris	0r	.
*custos:D	*	*	*	*	*	*	*
2D/	mi-	.	.	.	.	.	.
!LO:LB:g=original	!	!	!	!	!	!	!
2D/	-ſe-	.	.	2r	.	.	.
2C/	-re-	.	.	2A/	mi-	.	.
=106	=106	=106	=106	=106	=106	=106	=106
2D/	-re	1r	.	2A/	-ſe-	2r	.
2BB/	no-	.	.	2G/	-re-	2d\	mi-
1AA	-bis	2r	.	1A	-re	2d\	-ſe-
*	*	*custos:A	*	*	*	*	*
.	.	2A/	mi-	.	.	2c\	-re-
!	!	!LO:LB:g=original	!	!	!	!	!
=107	=107	=107	=107	=107	=107	=107	=107
1r	.	2A/	-ſe-	2F/	no-	2d\	-re
.	.	2G/	-re-	2E/	-bis	2B\	no-
2r	.	2A/	-re	2r	.	1A	-bis
*	*ij	*	*	*	*	*	*
2A\	mi-	2F/	no-	2c\	mi-	.	.
=108	=108	=108	=108	=108	=108	=108	=108
2A\	-ſe-	1E	-bis	2c\	-ſe-	2r	.
2G\	-re-	.	.	2B/	-re-	2e\	mi-
2A\	-re	1A	mi-	2c\	-re	2e\	-ſe-
!	!	!	!	!LO:TX:t=P:problem=poprawka wysokości	!	!	!
2F\	no-	.	.	2A\	mi-	2d\	-re-
=109	=109	=109	=109	=109	=109	=109	=109
1E	.	2B\	-ſe-	2A/	-ſe-	1e	-re
.	.	2B\	-re-	2G/	-re-	.	.
1AA	-bis	1c	-re	1A	-re	2r	.
.	.	.	.	.	.	2e\	mi-
*	*Xij	*	*	*	*	*	*
=110	=110	=110	=110	=110	=110	=110	=110
2AA/	mi-	2A\	no-	1F	no-	2e\	-ſe-
2D/	-ſe-	1B	.	.	.	2d\	-re-
2C/	-re-	.	.	2E/	-bis	2e\	-re
2AA/	-re	1A	.	2E/	Quo-	2c\	no-
=111	=111	=111	=111	=111	=111	=111	=111
*	*	*	*	*	*	*custos:A	*
1E	no-	.	-­-	2G/	-ni-	1B	.
.	.	2G/	.	2G/	-am	.	.
!	!	!	!	!	!	!LO:LB:g=original	!
1AA	-bis	2F/	.	1.A	tu	0A	-bis
.	.	2E/	.	.	.	.	.
=112	=112	=112	=112	=112	=112	=112	=112
2r	.	1F	.	.	.	.	.
2AA/	Quo-	.	.	2A/	ſo-	.	.
2C/	-ni-	1E	-bis	2G/	-lus	1r	.
*	*	*	*	*custos:B	*	*	*
2C/	-(am)	.	.	2A/	ſan-	.	.
!	!	!	!	!LO:LB:g=original	!	!	!
=113	=113	=113	=113	=113	=113	=113	=113
1.D	tu	0r	.	2B/	.	0r	.
.	.	.	.	1A	.	.	.
*custos:C	*	*	*	*	*	*	*
2D/	ſo-	.	.	4G/	.	.	.
.	.	.	.	4F/	.	.	.
!LO:LB:g=original	!	!	!	!	!	!	!
=114	=114	=114	=114	=114	=114	=114	=114
2.C/	-lus	2r	.	2A/	.	1r	.
.	.	2E/	Quo-	2G/	.	.	.
4D/	.	.	.	.	.	.	.
1E	ſanc-	2G/	-(ni-	4E/	.	2r	.
.	.	.	.	4F/	.	.	.
.	.	2G/	-a)m	4G/	.	2B\	Quo-
.	.	.	.	4E/	.	.	.
=115	=115	=115	=115	=115	=115	=115	=115
*lig	*	*	*	*	*	*	*
1D	-tus	1.A	tu	1F	.	2d\	-ni-
.	.	.	.	.	.	2d\	-am
1AA	.	.	.	0E	-ctus	1.e	tu
.	.	2A/	so-	.	.	.	.
*Xlig	*	*	*	*	*	*	*
=116	=116	=116	=116	=116	=116	=116	=116
0r	.	2G/	-lus	.	.	.	.
*	*	*custos:B	*	*	*	*	*
.	.	2A/	ſan-	.	.	2e\	ſo-
!	!	!LO:LB:g=original	!	!	!	!	!
.	.	1B	.	1r	.	2d\	-lus
.	.	.	.	.	.	2e\	.
=117	=117	=117	=117	=117	=117	=117	=117
*	*	*lig	*	*	*	*	*
2r	.	1A	-ctus	2r	.	1f	ſanc-
2A\	Tu	.	.	2c\	tu	.	.
2A\	ſo-	1E	.	2c\	so-	1e	-tus
2G\	-lus	.	.	2B\	-lus	.	.
*	*	*Xlig	*	*	*	*	*
=118	=118	=118	=118	=118	=118	=118	=118
1A	Do-	1r	.	1c	.	2r	.
.	.	.	.	.	.	2e\	tu
2G\	.	2r	.	2B\	Do-	2e\	ſo-
2F\	-mi-	2A/	Tu	2A/	.	2d\	-lus
=119	=119	=119	=119	=119	=119	=119	=119
2E\	.	2A/	so-	1B	-mi-	1e	do-
2E\	-nus	2G/	-lus	.	.	.	.
2F\	.	1A	d(o-	1A	-nus	1d	-mi-
2D/	.	.	.	.	.	.	.
=120	=120	=120	=120	=120	=120	=120	=120
1E	.	1G	-mi)-	2r	.	1B	-nus
.	.	.	.	1e	Tu	.	.
2AA/	.	2E/	-nus	.	.	1r	.
1A	tu	1c	tu	2e\	ſo-	.	.
=121	=121	=121	=121	=121	=121	=121	=121
.	.	.	.	1e	-lus	0r	.
2A\	so-	2c\	so-	.	.	.	.
2A\	-lus	2c\	-lus	2r	.	.	.
2G\	al-	2B\	al-	1e	tu	.	.
=122	=122	=122	=122	=122	=122	=122	=122
1A	-tis-	2c\	-tis-	.	.	0r	.
*	*	*	*	*custos:e	*	*	*
.	.	2A\	-ſi-	2e\	so-	.	.
*custos:E	*	*	*	*	*	*	*
!	!	!	!	!LO:LB:g=original	!	!	!
1G	-ſi-	0B	-mus	2e\	-lus	.	.
.	.	.	.	2d\	al-	.	.
!LO:LB:g=original	!	!	!	!	!	!	!
=123	=123	=123	=123	=123	=123	=123	=123
2E\	-mus	.	.	1e	-tiſ-	0r	.
2E\	Je-	.	.	.	.	.	.
*	*	*	*ij	*	*	*	*
2F\	.	2.A/	tu	1d	-si-	.	.
2D\	-ſu	.	.	.	.	.	.
.	.	4A/	so-	.	.	.	.
=124	=124	=124	=124	=124	=124	=124	=124
1E	chri-	2A/	 lus	1B	-mus	1.e	Tu
.	.	2G/	al-	.	.	.	.
*	*	*custos:G	*	*	*	*	*
1AA	-ſte	1A	-tis-	2r	.	.	.
*	*	*	*	*	*	*custos:e	*
.	.	.	.	1c	.	2e\	so-
!	!	!LO:LB:g=original	!	!	!	!LO:LB:g=original	!
=125	=125	=125	=125	=125	=125	=125	=125
1r	.	1G	-ſi-	.	.	2e\	-lus
.	.	.	.	2B\	.	2d\	al-
1C	Je-	1E	-mus	2G/	.	1e	-tis-
.	.	.	.	2c\	.	.	.
*	*	*	*Xij	*	*	*	*
=126	=126	=126	=126	=126	=126	=126	=126
1D	-ſu	1r	.	2B\	.	1d	-ſi-
.	.	.	.	2A\	.	.	.
*lig	*	*	*	*	*	*	*
1E	Chri-	2r	.	2G/	.	1B	-mus
.	.	2G/	Je-	1B	Je-	.	.
=127	=127	=127	=127	=127	=127	=127	=127
1F	.	1A	-ſu	.	.	1d	Je-
.	.	.	.	1A	-ſu	.	.
*Xlig	*	*	*	*	*	*	*
1E	.	1B	chr(i-	.	.	0.e	-ſu
.	.	.	.	2G/	chri-	.	.
=128	=128	=128	=128	=128	=128	=128	=128
0AA	.	[0A;<l	-st)e	0c	.	.	.
=129	=129	=129	=129	=129	=129	=129	=129
0D	.	0A_	.	0d	-ſte.	0f	chri-
=130	=130	=130	=130	=130	=130	=130	=130
0AA;l	-ste.	0A]	.	0c;<l	.	0e;<l	-ste.
=131	=131	=131	=131	=131	=131	=131	=131
*	*	*	*	*M2/1	*	*	*
*	*	*	*	*met(c|)	*	*	*
0r	.	1A	Cum	0r	.	1r	.
.	.	2G/	s(an)c-	.	.	1e	Cum
.	.	2A/	-to	.	.	.	.
=132	=132	=132	=132	=132	=132	=132	=132
1r	.	2F/	ſpi-	0r	.	2d\	ſ(an)-
.	.	2G/	-ri-	.	.	2e\	-cto
2r	.	1A	-tu	.	.	2c\	spi-
2D/	Cum	.	.	.	.	2d\	-ri-
=133	=133	=133	=133	=133	=133	=133	=133
2C/	ſ(an)-	2r	.	1A	Cum	2e\	-tu
*	*	*	*ij	*	*	*	*
2D/	-cto	2F/	cum	.	.	1f	.
2BB/	Spi-	2D/	s(an)-	2G/	ſanc-	.	.
*custos:D	*	*	*	*custos:F	*	*	*
2C/	-ri-	2E/	-cto	2A/	-to	1e	.
!LO:LB:g=original	!	!	!	!LO:LB:g=original	!	!	!
=134	=134	=134	=134	=134	=134	=134	=134
2D/	-tu	2F/	ſpi-	2F/	Spi-	.	.
4C/	.	4E/	.	2G/	.	1d	.
4BB/	.	4D/	.	.	.	.	.
*	*	*custos:D	*	*	*	*	*
1AA	.	1E	-ri-	1A	-ri-	.	.
*	*	*	*	*	*	*custos:d	*
.	.	.	.	.	.	2c\	.
!	!	!LO:LB:g=original	!	!	!	!LO:LB:g=original	!
=135	=135	=135	=135	=135	=135	=135	=135
1D	.	2D/	-tu	0A	-tu	2.d\	.
*	*	*	*Xij	*	*	*	*
.	.	2D/	in	.	.	.	.
.	.	.	.	.	.	4c\	.
2r	.	2F/	glo-	.	.	2A/	.
2AA/	in	2E/	-ri-	.	.	2c\	.
=136	=136	=136	=136	=136	=136	=136	=136
2D/	glo-	2F/	-a	1r	.	1B	.
2E/	-ri-	2G/	De-	.	.	.	.
2F/	-a	1A	-i	1D	in	0A	.
1D	De-	.	.	.	.	.	.
=137	=137	=137	=137	=137	=137	=137	=137
.	.	1r	.	2F/	glo-	.	.
2C/	-i	.	.	2E/	-ri-	.	.
2D/	p(at)-	2r	.	2F/	-a	2r	.
2BB/	-ris	2d\	in	2G/	de-	2D/	in
=138	=138	=138	=138	=138	=138	=138	=138
1AA	.	2d\	glo-	1A	-i	2F/	glo-
.	.	2c\	-ri-	.	.	2E/	-ri-
1D	.	2d\	-a	2r	.	2.F/	-a
.	.	2B\	De-	2D/	in	.	.
.	.	.	.	.	.	4G/	De-
=139	=139	=139	=139	=139	=139	=139	=139
2r	.	2A\	-i	2F/	glo-	1A	-i
*	*ij	*	*	*	*	*	*
2AA/	in	2c\	pa-	2E/	-ri-	.	.
2D/	glo-	1B	.	2F/	-a	1r	.
2E/	-ri-	.	.	2G/	De-	.	.
=140	=140	=140	=140	=140	=140	=140	=140
2F/	-a	0A	-tris	2A/	-i	2r	.
1D	De-	.	.	2.F/	pa	2A\	in
.	.	.	.	.	.	2d\	glo-
.	.	.	.	4E/	.	.	.
2C/	-i	.	.	1A	.	2e\	-ri-
=141	=141	=141	=141	=141	=141	=141	=141
2D/	p(at)-	2r	.	.	.	2f\	-a
2BB/	.	2D/	De-	2G/	.	1d	De-
*custos:D	*	*	*	*	*	*	*
1AA	-ris	2F/	-i	1A	.	.	.
.	.	2E/	pa-	.	.	2c\	-i
!LO:LB:g=original	!	!	!	!	!	!	!
*	*Xij	*	*	*	*	*	*
=142	=142	=142	=142	=142	=142	=142	=142
2r	.	2.F/	-tris	2r	.	2d\	p(at)-
*	*	*	*	*	*	*custos:A	*
1D	De-	.	.	2D/	de-	2B\	-ris
.	.	4G/	.	.	.	.	.
!	!	!	!	!	!	!LO:LB:g=original	!
.	.	2.A/	.	2F/	-i	2A/	a-
2C/	-i	.	.	2E/	p(at)-	1e	.
*	*	*custos:F	*	*	*	*	*
.	.	4G/	.	.	.	.	.
!	!	!LO:LB:g=original	!	!	!	!	!
=143	=143	=143	=143	=143	=143	=143	=143
!	!	!LO:TX:t=P:problem=poprawka wysokości - problem z sześciolinią	!	!	!	!	!
2D/	pa-	2F/	a-	2F/	-ris	.	.
!	!	!LO:TX:t=P:problem=poprawka wysokości - problem z sześciolinią	!	!	!	!	!
2BB/	-tris	4E/	.	2G/	A-	1d	.
!	!	!LO:TX:t=P:problem=poprawka wysokości - problem z sześciolinią	!	!	!	!	!
.	.	4D/	.	.	.	.	.
1AA	A-	1E	.	1A	-men.	.	.
.	.	.	.	.	.	2c\	-men
=144	=144	=144	=144	=144	=144	=144	=144
*lig	*	*lig	*	*lig	*	*	*
1BB	-men.	1D	-men	1F	.	[0d;<l	.
1GG	.	1G	.	1B	.	.	.
*Xlig	*	*	*	*Xlig	*	*	*
=145	=145	=145	=145	=145	=145	=145	=145
!	!	!LO:TX:t=P:problem=# below	!	!	!	!	!
0D;<l	.	0F#X;	.	2B-X\	.	0d]	.
.	.	.	.	4A/	.	.	.
.	.	.	.	4G/	.	.	.
.	.	.	.	1A;<l	.	.	.
*	*	*Xlig	*	*	*	*	*
==	==	==	==	==	==	==	==
*-	*-	*-	*-	*-	*-	*-	*-
!!!system-decoration: [(s1,s2,s3,s4)]
!!!RDF**kern: > = above
!!!RDF**kern: < = below
!!!RDF**kern: l = terminal long
!!!ENC: Mateusz Solarz
!!!END: 2022-02-21
!!!ENC: Jan Barakat
!!!END: 2022-02-27
